X:47
T:Tune snippet
L:1/8
M:6/8
R:Jig
C:Probably traditional, but if not, (c)Keith Carter-Harris,
C: Trebuchet, http://www.trebuchetmusic.co.uk, October 2003
K:G
d2d dcB | cde dBG | d2d dcB | cBe d3 |
d2d dcB | cde dBG | cde dcB | AGF G3 ||
